X: 32944
T: President Garfield's
R: hornpipe
M: 4/4
K: Cdorian
|:dc|BFDF BFDF|BABc dcd=e|fcAc fcAc|f=efg f_edc|
BFDF BFDF|BABc dcdf|agfe ecAc|(3BcB AcB2:|
|:ba|geBG Ebag|fdBF Dfgf|ecgf ecgf|dBgf dBba|
geBG Ebag|fdBF Dfgf|=efgf _ecAc|(3BcB AcB2:|

